X:1
T:Cantata BWV 26
T:Ach wie flüchtig, ach wie nichtig
T:J. S. Bach
%%score [ 1 2 3 4 ]
L:1/8
Q:1/4=80
M:4/4
K:C
V:1 treble nm="Soprano" snm="S."
V:2 treble nm="Alto" snm="A."
V:3 treble-8 nm="Tenor" snm="T."
V:4 bass nm="Bass" snm="B."
V:1
 A2 B2 c2 c2 | c2 d2 e2 e2 | e2 e2 d2 c2 | B3 B !fermata!A4 | e2 e2 f2 f2 | e2 e2 d2 d2 | %6
 d2 d2 e2 e2 | d2 d2 c2 c2 | c2 d2 e2 dc | B2 B2 A2 !fermata!A2 |] %10
V:2
 E2 E2 E2 E2 | E2 G2 G2 G2 | G2 c2 cBBA | A2 ^G2 !fermata!E4 | A2 A2 A2 _B2 | _B2 AG GE ^F2 | %6
 G2 G2 G2 A2 | A2 GF FD E2 | F2 F2 E2 E2 | ^F2 ED DB, !fermata!^C2 |] %10
V:3
 c2 B2 A2 A2 | A2 B2 c2 c2 | cdcB ABce | f2 ed !fermata!^c4 | ^cdec d2 d2 | d2 ^c2 d2 A2 | %6
 BcdB c2 c2 | c2 B2 c2 G2 | A2 A2 B2 A2 | A2 ^G2 A2 !fermata!E2 |] %10
V:4
 A,2 ^G,2 A,2 A,,2 | A,2 G,2 C2 C,2 | CB,A,G, ^F,^G, A,2 | D,2 E,2 !fermata!A,,4 | %4
 A,B,^CA, D=C_B,A, | G,E, A,2 D,2 D,2 | G,A,B,G, CB,A,G, | F,D, G,2 C,2 C,2 | F,2 E,D, ^G,E, A,2 | %9
 ^D,2 E,2 A,2 !fermata!A,,2 |] %10

